X:1
T:The Twenty-Fourth of February
M:4/4
L:1/4
K:F
 C3/4 C/4| F F A3/2 G/2| F F FE/2-D/2| C C C A,| C3| A,| A, D D D|\
 D/2A/2 A/2A/2 AA/2-G/2| F D E C| D2| C3/2 C/2| F F A/2B/2 c| F F A/2B/2 c|\
 F F F/2E/2 D| C4| A,/2D/2 D/2D/2 D2| D/2A/2 A/2A/2 A3/2 G/2| F D E/2E/2 C|\
 D3||
